images/logo.svg

<svg xmlns="http://www.w3.org/2000/svg" viewBox="0 0 600 442"><rect class="background" height="2000%" width="2000%" y="-1000%" x="-1000%" fill="#fff"/><rect class="watermarklayer" height="100%" width="100%" fill="none"/><g class="content"><g class="icon" transform="translate(1.4 25.8)"><svg height="98" width="141" xmlns="http://www.w3.org/2000/svg" x="229" y="93" preserveAspectRatio="none"><svg xmlns="http://www.w3.org/2000/svg" viewBox="229 93 141 98"><defs><linearGradient x1="100%" y1="57%" x2="6%" y2="55%" id="a"><stop stop-color="#A0A0A0" offset="0%"/><stop stop-color="#E7E7E7" offset="23%"/><stop stop-color="#C036F9" offset="60%"/><stop stop-color="#4401B5" offset="100%"/></linearGradient></defs><path d="m313.5 97.083 42.581 24.584a28 28 0 0 1 14 24.249v45a28 28 0 0 0-14-24.249L313.5 142.083a28 28 0 0 0-28 0l-42.581 24.584a28 28 0 0 0-14 24.249v-45a28 28 0 0 1 14-24.249L285.5 97.083a28 28 0 0 1 28 0Z" fill="url(#a)"/></svg></svg><svg height="98" width="141" xmlns="http://www.w3.org/2000/svg" x="229" y="150" preserveAspectRatio="none"><svg xmlns="http://www.w3.org/2000/svg" viewBox="229 150 141 98"><defs><linearGradient x1="97%" y1="61%" x2="5%" y2="36%" id="b"><stop stop-color="#BD38FB" offset="0%"/><stop stop-color="#4300B4" offset="48%"/><stop stop-color="#EEE" offset="82%"/><stop stop-color="#AFAFB3" offset="100%"/></linearGradient></defs><path d="M228.923 190.455a28.006 28.006 0 0 1 8.877-19.997 28 28 0 0 0 5.119 3.79l42.581 24.585.42.238a28 28 0 0 0 27.58-.238l42.581-24.584.398-.234A28 28 0 0 0 370.08 150v45a28 28 0 0 1-14 24.249l-42.58 24.584a28 28 0 0 1-28 0l-42.581-24.584a28 28 0 0 1-14-24.249v-4.084Z" fill="url(#b)"/></svg></svg><svg height="154" width="141" xmlns="http://www.w3.org/2000/svg" x="229" y="93" preserveAspectRatio="none"><svg xmlns="http://www.w3.org/2000/svg" viewBox="229 93 141 154"><defs><linearGradient x1="65%" y1="16%" x2="33%" y2="85%" id="c"><stop stop-color="#4300B4" offset="0%"/><stop stop-color="#BD38FB" offset="100%"/></linearGradient></defs><path d="m313.5 97.083 42.581 24.584a28.002 28.002 0 0 1 13.648 19.82c-1.102.458-2.18.99-3.229 1.596l-42.581 24.584a28 28 0 0 0-14 24.249v49.168c0 1.498.12 2.978.352 4.43a28 28 0 0 1-24.771-1.597l-42.581-24.584a28.001 28.001 0 0 1-13.831-21.176 27.75 27.75 0 0 0 2.412-1.24l42.581-24.584a28 28 0 0 0 14-24.249V98.916c0-1.034-.057-2.059-.169-3.072a27.994 27.994 0 0 1 25.588 1.239Z" fill="url(#c)"/></svg></svg></g><g class="name_and_slogan"><path d="M216.9 274q-1.1 0-1.5-.3-.4-.4-.4-1.5 0-1.3.4-1.6.4-.3 1.5-.3.9 0 1.4.3.4.3.4 1.6 0 1.1-.4 1.5-.5.3-1.4.3Zm-1.6 3.6h3.1V297h-3.1v-19.4m17 17h1.2q.4-.1 1-.2v2.6q-.6.1-1.1.2h-1.2q-1.6 0-2.7-.2t-1.8-.9q-.7-.7-1-1.9-.3-1.2-.3-3.1v-10.9h-2.9v-2.6h2.9V273h3.1v4.6h4.8v2.6h-4.8v10.7q0 1.1.1 1.9.1.7.4 1.1.3.4.9.6.5.1 1.4.1m23.4-9.3v1q-.1.6-.2 1.3l-13.1.8q0 1.6.3 2.8.3 1.2 1 1.9.8.8 1.9 1.1 1.2.4 3 .4 1.6 0 3.3-.3 1.7-.4 2.8-.9v2.8q-.5.2-1.1.4-.7.3-1.6.4-.9.2-1.8.3-1 .1-2.1.1-2.1 0-3.8-.5-1.7-.5-2.8-1.7-1.2-1.2-1.8-3.1-.6-1.9-.6-4.8t.6-4.9q.6-1.9 1.7-3.1 1.2-1.1 2.8-1.6 1.7-.5 3.7-.5 2.5 0 4.1.7 1.5.8 2.3 1.9.8 1.2 1.1 2.7.3 1.4.3 2.8Zm-3 .1q0-1.2-.2-2.2-.1-1-.6-1.8-.5-.7-1.4-1.2-1-.4-2.6-.4-1.7 0-2.7.4-1.1.4-1.7 1.3-.6.8-.8 2-.3 1.2-.3 2.6l10.3-.7m18.4 12q-2.1 0-3.8-.5-1.7-.5-2.8-1.7-1.2-1.2-1.8-3.1-.6-1.9-.6-4.8t.6-4.9q.6-1.9 1.8-3.1 1.1-1.1 2.8-1.6 1.7-.5 3.8-.5 1.7 0 3 .2t2.1.5v2.9q-1.1-.4-2.3-.7-1.2-.2-2.7-.2-1.7 0-2.7.4-1.1.3-1.8 1.2-.7.8-1 2.2-.3 1.5-.3 3.6t.3 3.5q.3 1.4 1 2.3.7.8 1.8 1.2 1.1.3 2.7.3 1.4 0 2.7-.2 1.3-.2 2.4-.6v2.8q-.4.2-1 .3-.6.1-1.3.2-.7.1-1.5.2-.7.1-1.4.1m21.5-20.2q1.9 0 3.2.5 1.2.4 2 1.3.7.8 1 2 .3 1.1.3 2.5V297H296v-12.3q0-1.1-.1-2-.2-.9-.6-1.5-.4-.6-1.1-.9-.8-.3-1.9-.3-1 0-1.8.1-.9.1-1.7.5-.8.4-1.4 1.2-.6.8-1 2.1V297h-3.1v-27.4h3.1v10.7q.4-.9 1.1-1.5.7-.6 1.5-1 .9-.3 1.8-.5.9-.1 1.8-.1m21.8-5.2q-1 0-1.6.2-.7.3-1.1.9-.4.7-.5 1.7-.2 1.1-.2 2.8h4.6v2.5H311V297h-3.1v-16.9h-3.3v-2.5h3.3v-.2q0-2.5.5-4.1.4-1.5 1.3-2.4.8-.8 2.1-1.1 1.2-.3 2.6-.3.6 0 1.1.1.6 0 1.1.1v2.5q-.9-.2-2.2-.2m15.6 5.2q2.3 0 3.8.5 1.5.4 2.3 1.2.9.8 1.3 1.9.3 1.1.3 2.4V297h-2.6l-.5-3q-.4.8-1.1 1.5-.7.6-1.7 1-.9.4-2 .6-1 .3-2.1.3-3.5 0-5.1-1.5-1.6-1.6-1.6-4.3 0-1.8.5-2.9.6-1.2 1.6-2 1-.7 2.4-1 1.5-.3 3.2-.3h5.9v-1.6q0-.9-.2-1.6-.2-.8-.7-1.3-.5-.5-1.5-.8-.9-.3-2.4-.3-.9 0-2.1.1-1.1.1-2.2.3v-2.7q1.1-.2 2.3-.2 1.1-.1 2.2-.1Zm-2 17.6q2.4 0 4.1-1 1.8-1 2.5-2.7v-3.2h-5.7q-1.2 0-2.1.1-.9.1-1.5.6-.5.4-.8 1.1-.3.7-.3 1.8 0 1.6.8 2.5.9.8 3 .8m27.6-17.6q1.9 0 3.2.5 1.2.4 2 1.3.7.8 1 2 .3 1.1.3 2.5V297H359v-12.3q0-1.1-.2-2-.1-.9-.5-1.5t-1.2-.9q-.7-.3-1.8-.3-1 0-1.8.1-.9.1-1.7.5-.8.4-1.4 1.2-.6.8-1 2.1V297h-3.1v-19.4h3.1v2.7q.4-.9 1.1-1.5.7-.6 1.5-1 .9-.3 1.8-.5.9-.1 1.8-.1m19.2 20h-1.6l-1.6-.2q-.7 0-1.4-.2-.7-.1-1.1-.2v-2.7q.5.2 1.2.3.7.2 1.5.3.7.1 1.5.2h1.4q2.3 0 3.4-.6 1.1-.7 1.1-2.4 0-.9-.1-1.4-.2-.6-.6-.9-.5-.4-1.4-.7-.8-.3-2.2-.6-1.6-.4-2.7-.9-1-.4-1.6-1.1-.6-.6-.9-1.5-.2-.9-.2-2.1 0-2.4 1.7-3.9 1.7-1.4 5.2-1.4 1.4 0 2.8.2t2.1.4l-.2 2.7q-.8-.3-2-.6-1.3-.2-2.6-.2-2.1 0-3.1.6t-1 2.2q0 .8.1 1.3.2.4.6.8.4.3 1.1.5.7.3 1.9.5 1.6.4 2.8.9 1.2.4 1.9 1.1.7.6 1 1.6.4 1 .4 2.4 0 2.9-1.9 4.3-1.9 1.3-5.5 1.3" transform="translate(1.4 25.8)" class="name"/></g></g></svg>

<svg height="100%" version="1.1" width="100%" xmlns="http://www.w3.org/2000/svg" preserveAspectRatio="xMidYMid meet" viewBox="0 0 600 442" xmlns:xlink="http://www.w3.org/1999/xlink"><desc>Created with Snap</desc><defs/><g id="root" contentwidth="167.2" contentheight="204.39999999999998">
          <rect class="background" height="2000%" width="2000%" y="-1000%" x="-1000%" style="" fill="#ffffff"/>
          <rect class="watermarklayer" height="100%" width="100%" y="0" x="0" style="" fill="none"/>
          <g class="content" id="content" transform="matrix(1,0,0,1,1.4,25.8)">
            <g class="icon">
            <svg height="98" version="1.1" width="141" xmlns="http://www.w3.org/2000/svg" x="229" y="93" preserveAspectRatio="none" transform="matrix(1,0,0,1,0,0)"><desc>Created with Snap</desc><defs/><svg xmlns="http://www.w3.org/2000/svg" viewBox="229 93 141 98"><defs><linearGradient x1="100%" y1="57%" x2="6%" y2="55%" id="prefix-o_--linearGradient-1"><stop stop-color="#A0A0A0" offset="0%"/><stop stop-color="#E7E7E7" offset="23%"/><stop stop-color="#C036F9" offset="60%"/><stop stop-color="#4401B5" offset="100%"/></linearGradient><linearGradient x1="97%" y1="61%" x2="5%" y2="36%" id="prefix-o_--linearGradient-2"><stop stop-color="#BD38FB" offset="0%"/><stop stop-color="#4300B4" offset="48%"/><stop stop-color="#EEE" offset="82%"/><stop stop-color="#AFAFB3" offset="100%"/></linearGradient><linearGradient x1="65%" y1="16%" x2="33%" y2="85%" id="prefix-o_--linearGradient-3"><stop stop-color="#4300B4" offset="0%"/><stop stop-color="#BD38FB" offset="100%"/></linearGradient></defs><path d="m313.5 97.083 42.581 24.584a28 28 0 0 1 14 24.249v45a28 28 0 0 0-14-24.249L313.5 142.083a28 28 0 0 0-28 0l-42.581 24.584a28 28 0 0 0-14 24.249v-45a28 28 0 0 1 14-24.249L285.5 97.083a28 28 0 0 1 28 0Z" id="prefix-o_--形状结合备份-2" fill="url(#prefix-o_--linearGradient-1)"/></svg></svg><svg height="98" version="1.1" width="141" xmlns="http://www.w3.org/2000/svg" x="229" y="150" preserveAspectRatio="none" transform="matrix(1,0,0,1,0,0)"><desc>Created with Snap</desc><defs/><svg xmlns="http://www.w3.org/2000/svg" viewBox="229 150 141 98"><defs><linearGradient x1="100%" y1="57%" x2="6%" y2="55%" id="prefix-rjA-linearGradient-1"><stop stop-color="#A0A0A0" offset="0%"/><stop stop-color="#E7E7E7" offset="23%"/><stop stop-color="#C036F9" offset="60%"/><stop stop-color="#4401B5" offset="100%"/></linearGradient><linearGradient x1="97%" y1="61%" x2="5%" y2="36%" id="prefix-rjA-linearGradient-2"><stop stop-color="#BD38FB" offset="0%"/><stop stop-color="#4300B4" offset="48%"/><stop stop-color="#EEE" offset="82%"/><stop stop-color="#AFAFB3" offset="100%"/></linearGradient><linearGradient x1="65%" y1="16%" x2="33%" y2="85%" id="prefix-rjA-linearGradient-3"><stop stop-color="#4300B4" offset="0%"/><stop stop-color="#BD38FB" offset="100%"/></linearGradient></defs><path d="M228.923 190.455a28.006 28.006 0 0 1 8.877-19.997 28 28 0 0 0 5.119 3.79l42.581 24.585.42.238a28 28 0 0 0 27.58-.238l42.581-24.584.398-.234A28 28 0 0 0 370.08 150v45a28 28 0 0 1-14 24.249l-42.58 24.584a28 28 0 0 1-28 0l-42.581-24.584a28 28 0 0 1-14-24.249v-4.084Z" id="prefix-rjA-形状结合备份-3" fill="url(#prefix-rjA-linearGradient-2)"/></svg></svg><svg height="154" version="1.1" width="141" xmlns="http://www.w3.org/2000/svg" x="229" y="93" preserveAspectRatio="none" transform="matrix(1,0,0,1,0,0)"><desc>Created with Snap</desc><defs/><svg xmlns="http://www.w3.org/2000/svg" viewBox="229 93 141 154"><defs><linearGradient x1="100%" y1="57%" x2="6%" y2="55%" id="prefix-u5F-linearGradient-1"><stop stop-color="#A0A0A0" offset="0%"/><stop stop-color="#E7E7E7" offset="23%"/><stop stop-color="#C036F9" offset="60%"/><stop stop-color="#4401B5" offset="100%"/></linearGradient><linearGradient x1="97%" y1="61%" x2="5%" y2="36%" id="prefix-u5F-linearGradient-2"><stop stop-color="#BD38FB" offset="0%"/><stop stop-color="#4300B4" offset="48%"/><stop stop-color="#EEE" offset="82%"/><stop stop-color="#AFAFB3" offset="100%"/></linearGradient><linearGradient x1="65%" y1="16%" x2="33%" y2="85%" id="prefix-u5F-linearGradient-3"><stop stop-color="#4300B4" offset="0%"/><stop stop-color="#BD38FB" offset="100%"/></linearGradient></defs><path d="m313.5 97.083 42.581 24.584a28.002 28.002 0 0 1 13.648 19.82c-1.102.458-2.18.99-3.229 1.596l-42.581 24.584a28 28 0 0 0-14 24.249v49.168c0 1.498.12 2.978.352 4.43a28 28 0 0 1-24.771-1.597l-42.581-24.584a28.001 28.001 0 0 1-13.831-21.176 27.75 27.75 0 0 0 2.412-1.24l42.581-24.584a28 28 0 0 0 14-24.249V98.916c0-1.034-.057-2.059-.169-3.072a27.994 27.994 0 0 1 25.588 1.239Z" id="prefix-u5F-形状结合备份-4" fill="url(#prefix-u5F-linearGradient-3)"/></svg></svg></g>
            <g id="icon_name_and_slogan_gap">
            </g>
            <g class="name_and_slogan" id="name_and_slogan_id">
              <g class="name"><g id="nameDefaultGroup"><path d="M216.9 274 Q215.8 274 215.4 273.7 Q215 273.3 215 272.2 Q215 270.9 215.4 270.6 Q215.8 270.3 216.9 270.3 Q217.8 270.3 218.3 270.6 Q218.7 270.9 218.7 272.2 Q218.7 273.3 218.3 273.7 Q217.8 274 216.9 274 Z M215.3 277.6 L218.4 277.6 L218.4 297 L215.3 297 L215.3 277.6 M232.3 294.6 Q233 294.6 233.5 294.6 Q233.9 294.5 234.5 294.4 L234.5 297 Q233.9 297.1 233.4 297.2 Q232.9 297.2 232.2 297.2 Q230.6 297.2 229.5 297 Q228.4 296.8 227.7 296.1 Q227 295.4 226.7 294.2 Q226.4 293 226.4 291.1 L226.4 280.2 L223.5 280.2 L223.5 277.6 L226.4 277.6 L226.4 273 L229.5 273 L229.5 277.6 L234.3 277.6 L234.3 280.2 L229.5 280.2 L229.5 290.9 Q229.5 292 229.6 292.8 Q229.7 293.5 230 293.9 Q230.3 294.3 230.9 294.5 Q231.4 294.6 232.3 294.6 M255.7 285.3 Q255.7 285.7 255.7 286.3 Q255.6 286.9 255.5 287.6 L242.4 288.4 Q242.4 290 242.7 291.2 Q243 292.4 243.7 293.1 Q244.5 293.9 245.6 294.2 Q246.8 294.6 248.6 294.6 Q250.2 294.6 251.9 294.3 Q253.6 293.9 254.7 293.4 L254.7 296.2 Q254.2 296.4 253.6 296.6 Q252.9 296.9 252 297 Q251.1 297.2 250.2 297.3 Q249.2 297.4 248.1 297.4 Q246 297.4 244.3 296.9 Q242.6 296.4 241.5 295.2 Q240.3 294 239.7 292.1 Q239.1 290.2 239.1 287.3 Q239.1 284.4 239.7 282.4 Q240.3 280.5 241.4 279.3 Q242.6 278.2 244.2 277.7 Q245.9 277.2 247.9 277.2 Q250.4 277.2 252 277.9 Q253.5 278.7 254.3 279.8 Q255.1 281 255.4 282.5 Q255.7 283.9 255.7 285.3 Z M252.7 285.4 Q252.7 284.2 252.5 283.2 Q252.4 282.2 251.9 281.4 Q251.4 280.7 250.5 280.2 Q249.5 279.8 247.9 279.8 Q246.2 279.8 245.2 280.2 Q244.1 280.6 243.5 281.5 Q242.9 282.3 242.7 283.5 Q242.4 284.7 242.4 286.1 L252.7 285.4 M271.1 297.4 Q269 297.4 267.3 296.9 Q265.6 296.4 264.5 295.2 Q263.3 294 262.7 292.1 Q262.1 290.2 262.1 287.3 Q262.1 284.4 262.7 282.4 Q263.3 280.5 264.5 279.3 Q265.6 278.2 267.3 277.7 Q269 277.2 271.1 277.2 Q272.8 277.2 274.1 277.4 Q275.4 277.6 276.2 277.9 L276.2 280.8 Q275.1 280.4 273.9 280.1 Q272.7 279.9 271.2 279.9 Q269.5 279.9 268.5 280.3 Q267.4 280.6 266.7 281.5 Q266 282.3 265.7 283.7 Q265.4 285.2 265.4 287.3 Q265.4 289.4 265.7 290.8 Q266 292.2 266.7 293.1 Q267.4 293.9 268.5 294.3 Q269.6 294.6 271.2 294.6 Q272.6 294.6 273.9 294.4 Q275.2 294.2 276.3 293.8 L276.3 296.6 Q275.9 296.8 275.3 296.9 Q274.7 297 274 297.1 Q273.3 297.2 272.5 297.3 Q271.8 297.4 271.1 297.4 M292.6 277.2 Q294.5 277.2 295.8 277.7 Q297 278.1 297.8 279 Q298.5 279.8 298.8 281 Q299.1 282.1 299.1 283.5 L299.1 297 L296 297 L296 284.7 Q296 283.6 295.9 282.7 Q295.7 281.8 295.3 281.2 Q294.9 280.6 294.2 280.3 Q293.4 280 292.3 280 Q291.3 280 290.5 280.1 Q289.6 280.2 288.8 280.6 Q288 281 287.4 281.8 Q286.8 282.6 286.4 283.9 L286.4 297 L283.3 297 L283.3 269.6 L286.4 269.6 L286.4 280.3 Q286.8 279.4 287.5 278.8 Q288.2 278.2 289 277.8 Q289.9 277.5 290.8 277.3 Q291.7 277.2 292.6 277.2 M314.4 272 Q313.4 272 312.8 272.2 Q312.1 272.5 311.7 273.1 Q311.3 273.8 311.2 274.8 Q311 275.9 311 277.6 L315.6 277.6 L315.6 280.1 L311 280.1 L311 297 L307.9 297 L307.9 280.1 L304.6 280.1 L304.6 277.6 L307.9 277.6 L307.9 277.4 Q307.9 274.9 308.4 273.3 Q308.8 271.8 309.7 270.9 Q310.5 270.1 311.8 269.8 Q313 269.5 314.4 269.5 Q315 269.5 315.5 269.6 Q316.1 269.6 316.6 269.7 L316.6 272.2 Q315.7 272 314.4 272 M330 277.2 Q332.3 277.2 333.8 277.7 Q335.3 278.1 336.1 278.9 Q337 279.7 337.4 280.8 Q337.7 281.9 337.7 283.2 L337.7 297 L335.1 297 L334.6 294 Q334.2 294.8 333.5 295.5 Q332.8 296.1 331.8 296.5 Q330.9 296.9 329.8 297.1 Q328.8 297.4 327.7 297.4 Q324.2 297.4 322.6 295.9 Q321 294.3 321 291.6 Q321 289.8 321.5 288.7 Q322.1 287.5 323.1 286.7 Q324.1 286 325.5 285.7 Q327 285.4 328.7 285.4 L334.6 285.4 L334.6 283.8 Q334.6 282.9 334.4 282.2 Q334.2 281.4 333.7 280.9 Q333.2 280.4 332.2 280.1 Q331.3 279.8 329.8 279.8 Q328.9 279.8 327.7 279.9 Q326.6 280 325.5 280.2 L325.5 277.5 Q326.6 277.3 327.8 277.3 Q328.9 277.2 330 277.2 Z M328 294.8 Q330.4 294.8 332.1 293.8 Q333.9 292.8 334.6 291.1 L334.6 287.9 L328.9 287.9 Q327.7 287.9 326.8 288 Q325.9 288.1 325.3 288.6 Q324.8 289 324.5 289.7 Q324.2 290.4 324.2 291.5 Q324.2 293.1 325 294 Q325.9 294.8 328 294.8 M355.6 277.2 Q357.5 277.2 358.8 277.7 Q360 278.1 360.8 279 Q361.5 279.8 361.8 281 Q362.1 282.1 362.1 283.5 L362.1 297 L359 297 L359 284.7 Q359 283.6 358.8 282.7 Q358.7 281.8 358.3 281.2 Q357.9 280.6 357.1 280.3 Q356.4 280 355.3 280 Q354.3 280 353.5 280.1 Q352.6 280.2 351.8 280.6 Q351 281 350.4 281.8 Q349.8 282.6 349.4 283.9 L349.4 297 L346.3 297 L346.3 277.6 L349.4 277.6 L349.4 280.3 Q349.8 279.4 350.5 278.8 Q351.2 278.2 352 277.8 Q352.9 277.5 353.8 277.3 Q354.7 277.2 355.6 277.2 M374.8 297.2 Q374.1 297.2 373.2 297.2 Q372.4 297.1 371.6 297 Q370.9 297 370.2 296.8 Q369.5 296.7 369.1 296.6 L369.1 293.9 Q369.6 294.1 370.3 294.2 Q371 294.4 371.8 294.5 Q372.5 294.6 373.3 294.7 Q374.1 294.7 374.7 294.7 Q377 294.7 378.1 294.1 Q379.2 293.4 379.2 291.7 Q379.2 290.8 379.1 290.3 Q378.9 289.7 378.5 289.4 Q378 289 377.1 288.7 Q376.3 288.4 374.9 288.1 Q373.3 287.7 372.2 287.2 Q371.2 286.8 370.6 286.1 Q370 285.5 369.7 284.6 Q369.5 283.7 369.5 282.5 Q369.5 280.1 371.2 278.6 Q372.9 277.2 376.4 277.2 Q377.8 277.2 379.2 277.4 Q380.6 277.6 381.3 277.8 L381.1 280.5 Q380.3 280.2 379.1 279.9 Q377.8 279.7 376.5 279.7 Q374.4 279.7 373.4 280.3 Q372.4 280.9 372.4 282.5 Q372.4 283.3 372.5 283.8 Q372.7 284.2 373.1 284.6 Q373.5 284.9 374.2 285.1 Q374.9 285.4 376.1 285.6 Q377.7 286 378.9 286.5 Q380.1 286.9 380.8 287.6 Q381.5 288.2 381.8 289.2 Q382.2 290.2 382.2 291.6 Q382.2 294.5 380.3 295.9 Q378.4 297.2 374.8 297.2 " style="" fill="#000000" transform="matrix(1,0,0,1,0,0)"/></g></g>
              <g class="slogan"><g id="sloganDefaultGroup"/></g>
            </g>
            <g class="border">
            </g>
          </g>
          <defs id="defs">
            <mask xmlns="http://www.w3.org/2000/svg" id="mask">
                <rect id="showAll" fill="white" x="229" y="93" width="141" height="155"/>
                <rect id="hideNameBg" fill="black" x="0" y="0" width="0" height="0" stroke-width="2" stroke="black"/>
                <rect id="hideSloganBg" fill="black" x="0" y="0" width="0" height="0" stroke-width="2" stroke="black"/>
            </mask>
          
          </defs>
        </g>
        </svg>
